X:1
T:Title
%%score { ( 1 2 ) | ( 3 4 ) }
L:1/8
M:4/4
K:D
V:1 treble nm="Grand Piano"
V:2 treble 
V:3 bass 
V:4 bass 
V:1
 z4 z2[Q:1/4=100] A2 | A3 [EA] [Fd]2 [Ac]2 | [Ac]4 [B,GB]2 [CGB]2 | [DFA]3 [GB] [FA]2 F2 | %4
[M:3/4] G6 |[M:1/4] E2 |[M:4/4] F3 [EG] [FA]2 [Fd]2 | [Ac]2 B2 A2 G2 | z4 F4[K:bass] | %9
[M:7/4] [F,D]6 z2 z2 z4 |[M:4/4][K:treble] [B,DG]8 | [A,DF]8 |] %12
V:2
 z4 z2 [A,F]E | x8 | x8 | x8 |[M:3/4] z2 CB, C2 |[M:1/4] x2 |[M:4/4] x8 | x8 | %8
 F3 G [A,D]2[K:bass] [G,C]2 |[M:7/4] x14 |[M:4/4][K:treble] x8 | x8 |] %12
V:3
 z4 z2 z G, | [D,F,D]3 [D,G,] [D,A,]2 [D,A,]2 | z2 A,2 G,2 G,2 | D,3 [D,G,] [D,A,]2 [D,D]2 | %4
[M:3/4] D2 z2 z2 |[M:1/4] [A,C]2 |[M:4/4] [D,A,D]3 [D,A,] [D,D]2 [D,D]2 | z2 G2 [G,B,F]2 [G,B,E]2 | %8
 [A,D]3[K:bass] [A,E] A,,2 z E |[M:7/4] D,6 z2 z2 z4 |[M:4/4] G,,8 | D,8 |] %12
V:4
 z4 z2 A,,2 | x8 | G,4 z4 | x8 |[M:3/4] [A,E]6 |[M:1/4] x2 |[M:4/4] x8 | [G,D]4 z4 | %8
 z4[K:bass] z2 A,,2 |[M:7/4] x14 |[M:4/4] x8 | x8 |] %12

